icons/1_Primary/AirVPN.svg

<svg width="1024" height="1024" viewBox="0 0 1024 1024" fill="none" xmlns="http://www.w3.org/2000/svg">
<g clip-path="url(#clip0_2_1449)">
<path d="M512 1024C794.77 1024 1024 794.77 1024 512C1024 229.23 794.77 0 512 0C229.23 0 0 229.23 0 512C0 794.77 229.23 1024 512 1024Z" fill="#728DBE"/>
<path d="M506.5 319.799C545.5 307.299 592 316.699 620.6 346.799C634.1 360.099 643.9 377.599 646.7 396.399C648 404.099 646.6 411.799 644.5 419.199C650.1 417.699 655.7 415.399 661.6 415.299C672.9 414.699 684.2 419.199 692.6 426.699C703.3 434.999 708.9 449.799 705 462.899C703.6 468.799 700.3 473.999 697.6 479.399C726.3 480.299 755.8 489.099 777.1 509.099C785.9 518.599 794 529.199 798 541.699C801.6 553.699 802.1 566.399 801.1 578.799C798.4 597.199 792.2 615.899 779.5 629.899C771.6 638.399 761.5 645.199 750.3 648.299C739.2 651.199 727.7 652.299 716.2 652.099C682.3 653.099 648.3 640.199 623.3 617.399C620.6 622.799 615.2 631.699 605.3 639.299C590.5 650.699 574.9 651.999 566.9 652.599C559.7 653.099 535.3 654.799 516.6 638.399C512.2 634.499 509.2 630.599 507.2 627.699C504.7 632.899 503 638.599 499.4 643.199C491.9 653.099 480.5 659.999 468.2 662.199C452.2 664.999 435 663.999 420.7 655.699C411.9 650.399 404.3 642.999 399.3 633.999C389.6 618.999 386 600.499 387.8 582.899C389.8 561.499 398.3 540.299 413.5 524.799C426.3 510.999 444 502.599 462.1 498.099C494.9 490.399 529.4 495.199 560.8 506.199C559 503.099 556.2 500.699 553.5 498.499C538.8 486.199 520.6 478.899 501.9 474.999C483.7 471.599 464.9 470.599 446.8 474.899C427.6 479.399 408.9 487.599 393.9 500.599C377 514.199 364.6 533.699 360.4 555.099C357.7 567.999 356 581.199 356.3 594.399C357.3 608.899 358.2 623.499 362.1 637.499C346.3 643.099 329.3 644.699 312.6 643.899C300.6 643.899 288.9 640.499 277.7 636.199C258.7 628.399 244 612.599 234.6 594.699C220.9 569.599 217.7 537.599 231 511.699C239.6 492.399 256.3 477.199 275.8 469.399C290.6 463.399 307.5 463.799 322.6 468.999C319 451.599 322.5 432.399 333.3 418.099C340.6 407.499 351.2 399.199 363.2 394.599C377.1 388.699 393.2 390.199 407.1 395.599C412.4 397.499 416.9 401.099 422.1 403.099C431 383.399 442.8 364.599 458.6 349.699C471.7 335.999 488.3 325.499 506.5 319.799Z" fill="white"/>
</g>
<defs>
<clipPath id="clip0_2_1449">
<rect width="1024" height="1024" fill="white"/>
</clipPath>
</defs>
</svg>

<svg width="1024" height="1024" fill="none" xmlns="http://www.w3.org/2000/svg"><g clip-path="url(#a)"><path d="M512 1024c282.77 0 512-229.23 512-512S794.77 0 512 0 0 229.23 0 512s229.23 512 512 512Z" fill="#728DBE"/><path d="M506.5 319.799c39-12.5 85.5-3.1 114.1 27 13.5 13.3 23.3 30.8 26.1 49.6 1.3 7.7-.1 15.4-2.2 22.8 5.6-1.5 11.2-3.8 17.1-3.9 11.3-.6 22.6 3.9 31 11.4 10.7 8.3 16.3 23.1 12.4 36.2-1.4 5.9-4.7 11.1-7.4 16.5 28.7.9 58.2 9.7 79.5 29.7 8.8 9.5 16.9 20.1 20.9 32.6 3.6 12 4.1 24.7 3.1 37.1-2.7 18.4-8.9 37.1-21.6 51.1-7.9 8.5-18 15.3-29.2 18.4-11.1 2.9-22.6 4-34.1 3.8-33.9 1-67.9-11.9-92.9-34.7-2.7 5.4-8.1 14.3-18 21.9-14.8 11.4-30.4 12.7-38.4 13.3-7.2.5-31.6 2.2-50.3-14.2-4.4-3.9-7.4-7.8-9.4-10.7-2.5 5.2-4.2 10.9-7.8 15.5-7.5 9.9-18.9 16.8-31.2 19-16 2.8-33.2 1.8-47.5-6.5-8.8-5.3-16.4-12.7-21.4-21.7-9.7-15-13.3-33.5-11.5-51.1 2-21.4 10.5-42.6 25.7-58.1 12.8-13.8 30.5-22.2 48.6-26.7 32.8-7.7 67.3-2.9 98.7 8.1-1.8-3.1-4.6-5.5-7.3-7.7-14.7-12.3-32.9-19.6-51.6-23.5-18.2-3.4-37-4.4-55.1-.1-19.2 4.5-37.9 12.7-52.9 25.7-16.9 13.6-29.3 33.1-33.5 54.5-2.7 12.9-4.4 26.1-4.1 39.3 1 14.5 1.9 29.1 5.8 43.1-15.8 5.6-32.8 7.2-49.5 6.4-12 0-23.7-3.4-34.9-7.7-19-7.8-33.7-23.6-43.1-41.5-13.7-25.1-16.9-57.1-3.6-83 8.6-19.3 25.3-34.5 44.8-42.3 14.8-6 31.7-5.6 46.8-.4-3.6-17.4-.1-36.6 10.7-50.9 7.3-10.6 17.9-18.9 29.9-23.5 13.9-5.9 30-4.4 43.9 1 5.3 1.9 9.8 5.5 15 7.5 8.9-19.7 20.7-38.5 36.5-53.4 13.1-13.7 29.7-24.2 47.9-29.9Z" fill="#fff"/></g><defs><clipPath id="a"><path fill="#fff" d="M0 0h1024v1024H0z"/></clipPath></defs></svg>
